Bingkun-Huang/Gestor/scripts/data/joint_trajectory_2.csv
time,panda_joint1,panda_joint2,panda_joint3,panda_joint4,panda_joint5,panda_joint6,panda_joint7
0.000000,-0.000675,-0.785026,-0.002450,-2.356195,0.000856,1.571102,0.784271
34260480.000000,-0.000687,-0.785021,-0.002450,-2.356195,0.000854,1.571098,0.784271
68247296.000000,-0.000687,-0.785023,-0.002453,-2.356193,0.000855,1.571098,0.784271
101998592.000000,-0.000679,-0.785031,-0.002451,-2.356195,0.000852,1.571099,0.784271
136189696.000000,-0.000679,-0.785024,-0.002450,-2.356198,0.000853,1.571097,0.784273
170042112.000000,-0.000679,-0.785023,-0.002453,-2.356195,0.000852,1.571097,0.784273
204013312.000000,-0.000677,-0.785026,-0.002448,-2.356195,0.000855,1.571099,0.784274
238265344.000000,-0.000682,-0.785026,-0.002450,-2.356195,0.000851,1.571099,0.784274
271847168.000000,-0.000680,-0.785026,-0.002450,-2.356193,0.000852,1.571099,0.784272
305942784.000000,-0.000679,-0.785029,-0.002448,-2.356195,0.000854,1.571099,0.784274
340096256.000000,-0.000684,-0.785021,-0.002453,-2.356195,0.000853,1.571101,0.784276
373989120.000000,-0.000680,-0.785026,-0.002448,-2.356195,0.000853,1.571099,0.784270
408204544.000000,-0.000685,-0.785023,-0.002450,-2.356193,0.000854,1.571099,0.784274
443723776.000000,-0.000681,-0.785023,-0.002448,-2.356198,0.000857,1.571098,0.784269
476816128.000000,-0.000676,-0.785031,-0.002448,-2.356190,0.000853,1.571100,0.784271
510871296.000000,-0.000682,-0.785026,-0.002453,-2.356198,0.000852,1.571102,0.784275
545025792.000000,-0.000682,-0.785024,-0.002454,-2.356195,0.000852,1.571099,0.784270
579139328.000000,-0.000682,-0.785026,-0.002450,-2.356198,0.000853,1.571099,0.784270
613301248.000000,-0.000674,-0.785023,-0.002448,-2.356198,0.000852,1.571099,0.784269
647407104.000000,-0.000679,-0.785023,-0.002453,-2.356193,0.000855,1.571100,0.784269
680984064.000000,-0.000685,-0.785028,-0.002448,-2.356193,0.000856,1.571099,0.784272
714917120.000000,-0.000685,-0.785026,-0.002450,-2.356193,0.000855,1.571098,0.784269
749081344.000000,-0.000681,-0.785026,-0.002450,-2.356198,0.000853,1.571098,0.784271
783226624.000000,-0.000677,-0.785023,-0.002448,-2.356193,0.000853,1.571098,0.784269
817073920.000000,-0.000679,-0.785023,-0.002453,-2.356195,0.000856,1.571098,0.784271
851353856.000000,-0.000677,-0.785023,-0.002450,-2.356195,0.000853,1.571099,0.784271
884903424.000000,-0.000685,-0.785032,-0.002451,-2.356195,0.000856,1.571099,0.784269
919271936.000000,-0.000679,-0.785026,-0.002450,-2.356193,0.000852,1.571099,0.784268
953271808.000000,-0.000679,-0.785023,-0.002450,-2.356198,0.000857,1.571099,0.784274
986740992.000000,-0.000679,-0.785036,-0.002450,-2.356190,0.000856,1.571094,0.784278
1021054720.000000,-0.000679,-0.785005,-0.002450,-2.356204,0.000852,1.571098,0.784277
1055237120.000000,-0.000674,-0.785031,-0.002443,-2.356192,0.000856,1.571099,0.784272
1088811264.000000,-0.000681,-0.785036,-0.002453,-2.356195,0.000853,1.571099,0.784269
1122923008.000000,-0.000679,-0.785003,-0.002453,-2.356198,0.000856,1.571100,0.784271
1156796928.000000,-0.000679,-0.785018,-0.002448,-2.356201,0.000856,1.571099,0.784276
1191084288.000000,-0.000685,-0.785036,-0.002453,-2.356190,0.000856,1.571098,0.784274
1225001728.000000,-0.000677,-0.785018,-0.002448,-2.356195,0.000852,1.571098,0.784270
1259196928.000000,-0.000687,-0.785021,-0.002453,-2.356198,0.000855,1.571098,0.784276
1292842752.000000,-0.000684,-0.785026,-0.002451,-2.356198,0.000857,1.571100,0.784269
1327067904.000000,-0.000677,-0.785023,-0.002450,-2.356195,0.000856,1.571100,0.784270
1360809216.000000,-0.000679,-0.785026,-0.002456,-2.356193,0.000852,1.571099,0.784276
1395043584.000000,-0.000680,-0.785021,-0.002450,-2.356195,0.000857,1.571102,0.784273
1428885248.000000,-0.000675,-0.785020,-0.002448,-2.356195,0.000856,1.571099,0.784276
1463217920.000000,-0.000679,-0.785029,-0.002453,-2.356190,0.000852,1.571099,0.784270
1496871680.000000,-0.000674,-0.785033,-0.002448,-2.356193,0.000852,1.571099,0.784271
1531085824.000000,-0.000677,-0.785023,-0.002448,-2.356198,0.000854,1.571099,0.784275
1564680704.000000,-0.000678,-0.785026,-0.002450,-2.356195,0.000855,1.571098,0.784276
1598639872.000000,-0.000682,-0.785028,-0.002448,-2.356198,0.000856,1.571099,0.784274
1632842752.000000,-0.000679,-0.785023,-0.002453,-2.356195,0.000856,1.571099,0.784276
1666813696.000000,-0.000679,-0.785013,-0.002445,-2.356201,0.000853,1.571096,0.784272
1700628224.000000,-0.000674,-0.785028,-0.002448,-2.356198,0.000852,1.571097,0.784270
1735183872.000000,-0.000678,-0.785039,-0.002442,-2.356193,0.000854,1.571099,0.784275
1769942272.000000,-0.000673,-0.785010,-0.002438,-2.356198,0.000854,1.571101,0.784275
1804213760.000000,-0.000678,-0.785037,-0.002453,-2.356190,0.000855,1.571097,0.784284
1837956864.000000,-0.000685,-0.785067,-0.002456,-2.356168,0.000855,1.571097,0.784279
1872311296.000000,-0.000695,-0.785049,-0.002466,-2.356183,0.000845,1.571098,0.784281
1905788672.000000,-0.000725,-0.785044,-0.002492,-2.356162,0.000842,1.571101,0.784276
1939880704.000000,-0.000712,-0.785102,-0.002493,-2.356129,0.000844,1.571102,0.784269
1973992960.000000,-0.000702,-0.785071,-0.002473,-2.356164,0.000846,1.571098,0.784270
2008184832.000000,-0.000718,-0.785000,-0.002491,-2.356222,0.000844,1.571089,0.784275
2042087168.000000,-0.000707,-0.784988,-0.002470,-2.356260,0.000847,1.571086,0.784271
2075730176.000000,-0.000720,-0.784943,-0.002490,-2.356369,0.000842,1.571077,0.784266
2109832448.000000,-0.000778,-0.784848,-0.002572,-2.356693,0.000833,1.571040,0.784272
2143954432.000000,-0.001115,-0.784661,-0.002909,-2.357734,0.000836,1.571079,0.784262
2177975296.000000,-0.001762,-0.784253,-0.003228,-2.359835,0.000841,1.571087,0.784257
2212132096.000000,-0.002804,-0.783062,-0.003681,-2.363369,0.000847,1.571127,0.784242
2246174208.000000,-0.004295,-0.781093,-0.004098,-2.368491,0.000857,1.571864,0.784143
2280180224.000000,-0.006278,-0.778382,-0.004287,-2.375584,0.000864,1.574494,0.783319
2314021632.000000,-0.008358,-0.774615,-0.004463,-2.384029,0.000866,1.578337,0.782859
2347940352.000000,-0.010268,-0.769824,-0.004676,-2.393782,0.000864,1.585329,0.782613
2384649216.000000,-0.011790,-0.764467,-0.005049,-2.404763,0.000858,1.597721,0.781522
2418293504.000000,-0.013341,-0.757726,-0.005399,-2.418366,0.000862,1.617468,0.779914
2452265216.000000,-0.014492,-0.750814,-0.005716,-2.432443,0.000869,1.641197,0.778980
2486053120.000000,-0.015146,-0.743176,-0.005999,-2.447629,0.000877,1.670083,0.778108
2520429056.000000,-0.015379,-0.735070,-0.006242,-2.464428,0.000891,1.703037,0.777270
2554261248.000000,-0.015326,-0.726049,-0.006291,-2.482394,0.000991,1.738556,0.776703
2587849216.000000,-0.015131,-0.716336,-0.006236,-2.501182,0.001499,1.774579,0.776479
2622347264.000000,-0.014688,-0.705893,-0.006237,-2.520929,0.001837,1.811051,0.776448
2655904000.000000,-0.013976,-0.694556,-0.006215,-2.541363,0.001908,1.848042,0.776383
2690476288.000000,-0.013063,-0.682523,-0.006219,-2.562136,0.001908,1.886163,0.776146
2723723776.000000,-0.012178,-0.669612,-0.006200,-2.583129,0.001888,1.926474,0.775571
2757788160.000000,-0.011198,-0.656129,-0.006141,-2.603916,0.001895,1.969119,0.774618
2791995392.000000,-0.010276,-0.642069,-0.006113,-2.624616,0.001885,2.013834,0.773943
2825971968.000000,-0.009371,-0.627522,-0.006093,-2.644807,0.001887,2.060293,0.773518
2859919360.000000,-0.008592,-0.612304,-0.006083,-2.664192,0.001882,2.107431,0.773429
2894236416.000000,-0.008063,-0.596873,-0.006069,-2.682618,0.001871,2.154125,0.773425
2927773440.000000,-0.007818,-0.580914,-0.006037,-2.699836,0.001874,2.199578,0.773442
2961819904.000000,-0.007793,-0.564534,-0.006000,-2.715616,0.001882,2.242523,0.773440
2996455680.000000,-0.007789,-0.547660,-0.005998,-2.729860,0.001888,2.281424,0.773460
3030042368.000000,-0.007820,-0.530209,-0.006026,-2.742592,0.001879,2.315615,0.773451
3063615744.000000,-0.007782,-0.512178,-0.005988,-2.753291,0.001875,2.345361,0.773442
3097881344.000000,-0.007700,-0.493419,-0.005935,-2.761881,0.001870,2.370864,0.773418
3132045824.000000,-0.007536,-0.474038,-0.005760,-2.768444,0.001867,2.392885,0.773347
3166079232.000000,-0.006991,-0.453819,-0.005465,-2.772445,0.001852,2.411140,0.772962
3199699712.000000,-0.005952,-0.433216,-0.004942,-2.774014,0.001826,2.426828,0.771893
3233917952.000000,-0.004312,-0.412323,-0.004313,-2.773626,0.001791,2.441789,0.768060
3268029696.000000,-0.001778,-0.391245,-0.003550,-2.771996,0.001592,2.458201,0.758098
3301786112.000000,0.002063,-0.370014,-0.002937,-2.769128,0.001466,2.476509,0.738492
3335776000.000000,0.007108,-0.348711,-0.002332,-2.765226,0.001470,2.496235,0.710626
3369791744.000000,0.013356,-0.327765,-0.001965,-2.760529,0.001487,2.515936,0.674825
3403807232.000000,0.020653,-0.306970,-0.001944,-2.755298,0.001494,2.534814,0.633220
3437864448.000000,0.028751,-0.286310,-0.001904,-2.749288,0.001503,2.551375,0.589479
3471939328.000000,0.037616,-0.265577,-0.001880,-2.742747,0.001509,2.566000,0.545338
3505702656.000000,0.047024,-0.244660,-0.001851,-2.735277,0.001515,2.578327,0.502388
3539744768.000000,0.057304,-0.223861,-0.001797,-2.727041,0.001514,2.587679,0.460924
3574154240.000000,0.068603,-0.203159,-0.001769,-2.718307,0.001509,2.595765,0.420919
3608267008.000000,0.080790,-0.182480,-0.001598,-2.708473,0.001488,2.601683,0.381190
3641707264.000000,0.094329,-0.162049,-0.001270,-2.697880,0.001480,2.605381,0.341030
3675942144.000000,0.109113,-0.142350,-0.000730,-2.686406,0.001456,2.607975,0.299722
3710036224.000000,0.125346,-0.123720,0.000096,-2.674134,0.001458,2.609295,0.257600
3744073984.000000,0.142856,-0.106243,0.001241,-2.661616,0.001456,2.609363,0.215410
3778010368.000000,0.161134,-0.089624,0.002612,-2.649550,0.001456,2.609349,0.173802
3812072448.000000,0.180328,-0.074659,0.003987,-2.638180,0.001458,2.609342,0.133402
3846033920.000000,0.200261,-0.060825,0.005810,-2.627191,0.001464,2.609317,0.094337
3880068608.000000,0.220400,-0.048582,0.007923,-2.616873,0.001484,2.609306,0.057688
3914080256.000000,0.240831,-0.037228,0.009945,-2.607072,0.001500,2.609231,0.025662
3947961600.000000,0.261138,-0.027436,0.012074,-2.598086,0.001525,2.609225,0.000357
3981995264.000000,0.281349,-0.018124,0.013992,-2.589213,0.001540,2.609241,-0.015698
4015634176.000000,0.301155,-0.009934,0.016088,-2.580052,0.001535,2.609253,-0.023030
4049648128.000000,0.320694,-0.003015,0.018155,-2.570891,0.001528,2.609246,-0.024410
4083669248.000000,0.340165,0.003038,0.020217,-2.561768,0.001527,2.609282,-0.024412
4117988352.000000,0.359725,0.008113,0.022507,-2.552333,0.001524,2.609282,-0.024403
4152032768.000000,0.379131,0.012244,0.024926,-2.542931,0.001533,2.609256,-0.024394
4186109952.000000,0.398674,0.015280,0.026838,-2.533810,0.001539,2.609227,-0.024382
4220203264.000000,0.417499,0.017618,0.028527,-2.524965,0.001544,2.608947,-0.024378
4253758464.000000,0.435779,0.019363,0.029966,-2.517056,0.001550,2.608346,-0.024385
4287739904.000000,0.453176,0.020588,0.030772,-2.510106,0.001559,2.608029,-0.024380
4322643200.000000,0.469221,0.021484,0.031004,-2.503748,0.001567,2.607918,-0.024378
4355781120.000000,0.483779,0.022260,0.031037,-2.498165,0.001596,2.607683,-0.024379
4389889024.000000,0.496010,0.022976,0.031053,-2.493497,0.001712,2.607277,-0.024361
4423850496.000000,0.506087,0.023623,0.031030,-2.489774,0.002027,2.605880,-0.024331
4457655296.000000,0.513389,0.024181,0.031013,-2.487278,0.002131,2.603243,-0.024329
4491729408.000000,0.518245,0.024788,0.031016,-2.485788,0.002167,2.599588,-0.024329
4525665024.000000,0.520707,0.025673,0.031023,-2.485181,0.002175,2.595082,-0.024326
4559675904.000000,0.521166,0.027033,0.030984,-2.485231,0.002175,2.589908,-0.024338
4593736960.000000,0.520148,0.029004,0.030628,-2.485262,0.002172,2.583336,-0.024341
4627773184.000000,0.517617,0.031473,0.030250,-2.485226,0.002156,2.574700,-0.024376
4661686272.000000,0.514092,0.034464,0.029733,-2.485262,0.002140,2.566963,-0.024440
4695625728.000000,0.510109,0.037915,0.028454,-2.485136,0.002112,2.560145,-0.025167
4730004224.000000,0.505258,0.041692,0.027052,-2.485113,0.002025,2.554977,-0.028724
4763977216.000000,0.499463,0.045740,0.025584,-2.485202,0.001519,2.551129,-0.038510
4798016768.000000,0.493209,0.050033,0.023754,-2.485408,0.001376,2.547591,-0.054234
4831587584.000000,0.485575,0.054671,0.022465,-2.485401,0.001356,2.542470,-0.076892
4866096128.000000,0.476916,0.059403,0.021237,-2.485412,0.001355,2.536049,-0.104751
4899520512.000000,0.467220,0.063948,0.020057,-2.485596,0.001360,2.529885,-0.135883
4933883136.000000,0.456425,0.068229,0.019170,-2.485839,0.001362,2.523918,-0.167726
4968011520.000000,0.444436,0.071993,0.018168,-2.486189,0.001383,2.517562,-0.197162
5001703936.000000,0.431531,0.075189,0.017070,-2.487026,0.001384,2.513309,-0.221660
5035727616.000000,0.417567,0.077420,0.015558,-2.488581,0.001378,2.512107,-0.241182
5069896192.000000,0.402687,0.078825,0.013968,-2.490430,0.001373,2.512292,-0.256131
5104058368.000000,0.387075,0.079523,0.011698,-2.492185,0.001355,2.512633,-0.267227
5138080000.000000,0.371022,0.079589,0.009157,-2.493679,0.001241,2.513004,-0.276668
5171739648.000000,0.354457,0.079532,0.006261,-2.494761,0.000908,2.513222,-0.287507
5205850624.000000,0.337294,0.079498,0.003217,-2.495462,0.000529,2.513563,-0.302699
5239582976.000000,0.319918,0.079488,0.000207,-2.495844,0.000098,2.513858,-0.323542
5273743616.000000,0.302242,0.079470,-0.003012,-2.496072,-0.000332,2.514112,-0.351219
5307974912.000000,0.284197,0.079470,-0.006471,-2.496127,-0.000859,2.514410,-0.385977
5341895168.000000,0.265802,0.079460,-0.009811,-2.496110,-0.001109,2.514731,-0.426056
5375970048.000000,0.247045,0.079471,-0.013553,-2.496102,-0.001111,2.515070,-0.467452
5410074112.000000,0.227898,0.079506,-0.018007,-2.496113,-0.001095,2.515185,-0.507446
5443650304.000000,0.208437,0.079509,-0.022801,-2.496220,-0.001076,2.515176,-0.543271
5477774336.000000,0.188395,0.079535,-0.027753,-2.496464,-0.001078,2.515175,-0.573262
5512036864.000000,0.168096,0.079566,-0.033073,-2.496828,-0.001082,2.515175,-0.598524
5545865728.000000,0.147405,0.079604,-0.038567,-2.497213,-0.001096,2.515195,-0.620285
5579879424.000000,0.126781,0.079679,-0.044349,-2.497434,-0.001108,2.515215,-0.639677
5613928448.000000,0.106228,0.079771,-0.049987,-2.497491,-0.001113,2.515450,-0.659253
5647537664.000000,0.085731,0.079815,-0.055554,-2.497472,-0.001120,2.515975,-0.679428
5681816064.000000,0.065397,0.079810,-0.061048,-2.497391,-0.001150,2.517391,-0.702104
5715785216.000000,0.045334,0.079812,-0.066328,-2.497270,-0.001225,2.519726,-0.728740
5749972992.000000,0.025712,0.079821,-0.071511,-2.496901,-0.001301,2.522835,-0.759870
5783503872.000000,0.006306,0.079861,-0.076326,-2.496218,-0.001311,2.526244,-0.794804
5817554432.000000,-0.013111,0.080018,-0.080958,-2.495152,-0.001312,2.530137,-0.831333
5851933952.000000,-0.032547,0.080421,-0.085516,-2.493674,-0.001309,2.533941,-0.867760
5885975040.000000,-0.051863,0.081196,-0.089762,-2.491709,-0.001295,2.535354,-0.901074
5919659008.000000,-0.070785,0.082458,-0.093971,-2.489411,-0.001290,2.535391,-0.930336
5953918464.000000,-0.089288,0.084290,-0.098165,-2.487066,-0.001297,2.535394,-0.956998
5987664896.000000,-0.107603,0.086584,-0.101984,-2.484610,-0.001299,2.535395,-0.981501
6021823488.000000,-0.125825,0.089462,-0.105314,-2.481907,-0.001315,2.535413,-1.005016
6055883008.000000,-0.143937,0.093128,-0.108580,-2.478475,-0.001352,2.535427,-1.029442
6090150656.000000,-0.161964,0.097605,-0.111824,-2.474416,-0.001347,2.535439,-1.054490
6123668736.000000,-0.179984,0.102862,-0.114499,-2.470235,-0.001329,2.535441,-1.077805
6157862144.000000,-0.197612,0.109206,-0.116835,-2.465709,-0.001329,2.535444,-1.096278
6191804928.000000,-0.214851,0.116401,-0.118976,-2.460823,-0.001329,2.535510,-1.110365
6225928704.000000,-0.231654,0.124232,-0.120517,-2.455195,-0.001341,2.536002,-1.121578
6260019456.000000,-0.248015,0.132726,-0.121211,-2.448781,-0.001339,2.536900,-1.131892
6294052096.000000,-0.263713,0.142026,-0.121542,-2.441874,-0.001344,2.539220,-1.141641
6327894272.000000,-0.278568,0.151528,-0.121630,-2.434031,-0.001342,2.542672,-1.152621
6361903104.000000,-0.292786,0.161375,-0.121665,-2.425451,-0.001356,2.547835,-1.164831
6395604992.000000,-0.306082,0.171438,-0.121753,-2.416610,-0.001354,2.556133,-1.179566
6429713408.000000,-0.319020,0.181162,-0.121811,-2.407436,-0.001359,2.565467,-1.196695
6463812864.000000,-0.331341,0.191357,-0.121943,-2.397876,-0.001358,2.576149,-1.214989
6497796096.000000,-0.343376,0.201276,-0.122142,-2.388250,-0.001357,2.585883,-1.233731
6531953920.000000,-0.355139,0.211107,-0.122318,-2.378532,-0.001357,2.594673,-1.250141
6565654784.000000,-0.366754,0.221220,-0.122605,-2.368374,-0.001355,2.600403,-1.263311
6599884288.000000,-0.378134,0.230933,-0.122724,-2.358224,-0.001351,2.601811,-1.272522
6633523200.000000,-0.389162,0.240658,-0.122827,-2.348295,-0.001361,2.601789,-1.276397
6667852288.000000,-0.399255,0.250231,-0.122818,-2.338796,-0.001375,2.601775,-1.276916
6701988096.000000,-0.408187,0.259281,-0.122833,-2.329465,-0.001467,2.601774,-1.277170
6735587072.000000,-0.415630,0.268225,-0.122816,-2.320339,-0.001946,2.601781,-1.278125
6768483584.000000,-0.421839,0.276769,-0.122821,-2.311480,-0.002947,2.601821,-1.281085
6802717184.000000,-0.427096,0.284304,-0.122841,-2.303073,-0.005060,2.601933,-1.287566
6836785920.000000,-0.431774,0.291360,-0.123004,-2.295287,-0.009169,2.602178,-1.294400
6870482688.000000,-0.435902,0.297783,-0.123530,-2.288196,-0.017554,2.603239,-1.300760
6904701696.000000,-0.439699,0.303776,-0.124291,-2.281221,-0.029956,2.606853,-1.307471
6938842112.000000,-0.443425,0.309159,-0.125487,-2.274830,-0.047242,2.614334,-1.312871
6972820480.000000,-0.447021,0.314378,-0.127547,-2.268524,-0.069426,2.622364,-1.315026
7006967296.000000,-0.450713,0.319076,-0.130478,-2.263013,-0.095081,2.629760,-1.314929
7040648960.000000,-0.454215,0.323381,-0.134530,-2.258243,-0.122530,2.637517,-1.314678
7074550528.000000,-0.457351,0.326956,-0.139653,-2.253914,-0.151348,2.643955,-1.314024
7108968448.000000,-0.459738,0.330045,-0.146024,-2.250141,-0.179861,2.651161,-1.312691
7142563840.000000,-0.461513,0.332826,-0.153339,-2.246494,-0.206294,2.659809,-1.310825
7176871936.000000,-0.463229,0.335466,-0.160825,-2.242409,-0.230048,2.668422,-1.308154
7210620416.000000,-0.464773,0.337715,-0.168229,-2.238555,-0.249711,2.678272,-1.304596
7244706304.000000,-0.465895,0.339411,-0.175442,-2.235137,-0.265204,2.687969,-1.298812
7278797312.000000,-0.466669,0.340840,-0.182610,-2.231818,-0.277308,2.698056,-1.289361
7312488960.000000,-0.467160,0.342058,-0.189654,-2.228415,-0.287178,2.705949,-1.276568
7348251904.000000,-0.467232,0.343145,-0.196526,-2.225568,-0.296641,2.712375,-1.259453
7381926400.000000,-0.467194,0.344069,-0.203744,-2.222936,-0.306625,2.716048,-1.236172
7415639552.000000,-0.467185,0.344830,-0.210170,-2.220381,-0.319765,2.716569,-1.212440
7449926400.000000,-0.467162,0.345582,-0.215869,-2.217639,-0.337659,2.716578,-1.188825
7483482368.000000,-0.467129,0.346187,-0.220482,-2.214777,-0.360586,2.716647,-1.168842
7517976064.000000,-0.467015,0.346315,-0.224131,-2.211925,-0.388425,2.716754,-1.152289
7552251904.000000,-0.466976,0.346253,-0.226896,-2.208984,-0.417232,2.716760,-1.137915
7585969920.000000,-0.466965,0.346260,-0.229391,-2.205010,-0.451380,2.716758,-1.121407
7619549184.000000,-0.466960,0.346252,-0.231306,-2.200540,-0.484168,2.716745,-1.103251
7653710848.000000,-0.466959,0.346157,-0.232915,-2.195638,-0.516268,2.716709,-1.080957
7687636736.000000,-0.466974,0.346125,-0.234264,-2.189968,-0.547682,2.716515,-1.054812
7721831680.000000,-0.466956,0.346017,-0.235509,-2.184073,-0.578442,2.716080,-1.025719
7755994624.000000,-0.466948,0.345812,-0.236814,-2.177806,-0.609144,2.715136,-0.994021
7789960704.000000,-0.466959,0.345510,-0.238317,-2.171336,-0.639975,2.714249,-0.960772
7823672064.000000,-0.466963,0.345184,-0.239945,-2.164399,-0.671823,2.712662,-0.927454
7857914624.000000,-0.466942,0.344738,-0.241795,-2.157405,-0.704775,2.709938,-0.894306
7891593216.000000,-0.466953,0.344330,-0.243832,-2.150065,-0.738741,2.705131,-0.861480
7925701120.000000,-0.466937,0.343684,-0.245845,-2.142498,-0.773908,2.695954,-0.828996
7959816704.000000,-0.466954,0.342873,-0.247361,-2.134480,-0.809764,2.682880,-0.796848
7993371392.000000,-0.466925,0.341696,-0.248316,-2.126508,-0.846302,2.666423,-0.765402
8027477248.000000,-0.466913,0.340187,-0.248510,-2.118645,-0.883238,2.648278,-0.735016
8061724928.000000,-0.466417,0.338415,-0.248479,-2.110694,-0.920636,2.629662,-0.706330
8095956992.000000,-0.465587,0.336157,-0.248471,-2.103561,-0.958084,2.611453,-0.679057
8129572864.000000,-0.464500,0.333623,-0.248439,-2.096794,-0.994520,2.594764,-0.652526
8163658752.000000,-0.463468,0.330747,-0.248421,-2.090725,-1.029343,2.581337,-0.625865
8197887232.000000,-0.462544,0.327863,-0.248277,-2.084956,-1.061813,2.570028,-0.598530
8231645184.000000,-0.461691,0.324624,-0.248126,-2.080386,-1.091846,2.561262,-0.571496
8265901824.000000,-0.460823,0.320943,-0.247987,-2.077043,-1.119498,2.554124,-0.544976
8299736064.000000,-0.459945,0.317317,-0.247971,-2.074438,-1.144499,2.548526,-0.519397
8333913344.000000,-0.458988,0.313814,-0.247945,-2.072400,-1.167933,2.542612,-0.496609
8367489024.000000,-0.457806,0.310513,-0.247869,-2.071011,-1.189680,2.534772,-0.477688
8401761536.000000,-0.456516,0.307390,-0.247783,-2.070473,-1.209280,2.526147,-0.463701
8435863040.000000,-0.455178,0.304768,-0.247506,-2.070370,-1.226493,2.517179,-0.455342
8470027520.000000,-0.454022,0.302851,-0.247155,-2.070418,-1.239697,2.509578,-0.450750
8503659264.000000,-0.453358,0.301730,-0.246578,-2.070489,-1.246601,2.503448,-0.449937
8537943296.000000,-0.453194,0.301568,-0.246149,-2.070529,-1.247769,2.499697,-0.449933
8571626752.000000,-0.453415,0.301958,-0.246174,-2.070860,-1.247554,2.498915,-0.449932
8605757440.000000,-0.454415,0.302727,-0.246255,-2.071388,-1.246393,2.498976,-0.449931
8639932672.000000,-0.456136,0.303977,-0.246324,-2.072171,-1.244071,2.499882,-0.449946
8673516288.000000,-0.458205,0.305668,-0.246310,-2.073473,-1.240814,2.501915,-0.449972
8707633152.000000,-0.460287,0.307787,-0.246298,-2.075323,-1.234893,2.505201,-0.449980
8741999360.000000,-0.462404,0.310263,-0.246279,-2.077895,-1.226429,2.511538,-0.449993
8775748096.000000,-0.464678,0.312929,-0.246267,-2.081590,-1.214458,2.523125,-0.450174
8809894656.000000,-0.467207,0.315744,-0.246276,-2.086479,-1.198887,2.539906,-0.450345
8843436544.000000,-0.469838,0.318839,-0.246281,-2.092343,-1.180260,2.560076,-0.450870
8877664256.000000,-0.472543,0.321972,-0.246274,-2.099027,-1.159918,2.582069,-0.451693
8911458816.000000,-0.475177,0.325133,-0.246255,-2.106248,-1.138769,2.604199,-0.453110
8945672960.000000,-0.477746,0.328191,-0.246249,-2.113709,-1.118505,2.625469,-0.456220
8979881216.000000,-0.480127,0.331259,-0.246242,-2.121029,-1.099635,2.644884,-0.461442
9013619712.000000,-0.481782,0.334098,-0.246222,-2.128038,-1.081955,2.661501,-0.471308
9047694080.000000,-0.482642,0.336412,-0.246056,-2.135281,-1.064185,2.675303,-0.487803
9083066880.000000,-0.482703,0.338221,-0.245504,-2.142677,-1.044213,2.686893,-0.511252
9116527360.000000,-0.482635,0.339344,-0.243934,-2.150329,-1.019855,2.697425,-0.541014
9150618368.000000,-0.482529,0.340069,-0.241213,-2.157375,-0.991423,2.703687,-0.571609
9184793856.000000,-0.482387,0.340273,-0.237477,-2.164519,-0.957927,2.707028,-0.600847
9218631424.000000,-0.482298,0.340259,-0.232813,-2.171496,-0.920185,2.708161,-0.628737
9252382208.000000,-0.482261,0.340322,-0.227637,-2.177923,-0.878729,2.708092,-0.655105
9286641920.000000,-0.482288,0.340305,-0.222470,-2.184299,-0.834976,2.707923,-0.681626
9320837120.000000,-0.482263,0.340306,-0.217293,-2.190476,-0.789719,2.707591,-0.708667
9355048448.000000,-0.482238,0.340307,-0.212232,-2.196371,-0.744328,2.706624,-0.736217
9388952320.000000,-0.482229,0.340239,-0.207327,-2.201755,-0.699586,2.705824,-0.764879
9422501120.000000,-0.482239,0.340271,-0.202648,-2.206508,-0.656443,2.705227,-0.794858
9456748544.000000,-0.482245,0.340240,-0.198061,-2.210655,-0.615483,2.704413,-0.826935
9490526976.000000,-0.482240,0.340158,-0.193431,-2.214185,-0.576521,2.702777,-0.861351
9524748288.000000,-0.482217,0.340159,-0.188439,-2.216884,-0.539544,2.699415,-0.897671
9558500864.000000,-0.482207,0.340183,-0.182970,-2.218521,-0.503902,2.693112,-0.935028
9592717824.000000,-0.482234,0.340174,-0.177232,-2.219116,-0.469068,2.683893,-0.971864
9626991360.000000,-0.482238,0.340101,-0.171434,-2.218896,-0.434168,2.670738,-1.007188
9660574208.000000,-0.482219,0.340007,-0.165596,-2.218392,-0.398520,2.654799,-1.039951
9694818048.000000,-0.482201,0.339836,-0.159608,-2.217677,-0.362166,2.635941,-1.069584
9728817152.000000,-0.482210,0.339537,-0.153472,-2.216958,-0.325397,2.615293,-1.097985
9762477568.000000,-0.482209,0.339088,-0.147523,-2.216304,-0.288503,2.593389,-1.125224
9796837888.000000,-0.482215,0.338668,-0.142032,-2.215817,-0.252031,2.572384,-1.151557
9830298368.000000,-0.482216,0.338284,-0.136914,-2.215569,-0.216342,2.553726,-1.178579
9864510464.000000,-0.482213,0.338047,-0.132380,-2.215583,-0.181799,2.538515,-1.206264
9898725376.000000,-0.482215,0.338063,-0.128412,-2.215742,-0.148954,2.526906,-1.234072
9932806912.000000,-0.482204,0.338061,-0.124814,-2.215926,-0.117937,2.518036,-1.263119
9966523648.000000,-0.482173,0.338102,-0.121596,-2.216218,-0.088702,2.512434,-1.292690
10000614656.000000,-0.482155,0.338102,-0.118576,-2.216686,-0.061319,2.509943,-1.322329
10034719232.000000,-0.482163,0.338107,-0.115608,-2.216936,-0.035606,2.508516,-1.351908
10068813568.000000,-0.482133,0.338197,-0.112865,-2.216946,-0.011311,2.506688,-1.377801
10103058688.000000,-0.482098,0.338189,-0.110355,-2.216915,0.011889,2.503296,-1.399696
10137011712.000000,-0.482035,0.338209,-0.108247,-2.216888,0.034063,2.497346,-1.416941
10170650368.000000,-0.482017,0.338367,-0.106404,-2.216941,0.056121,2.489350,-1.429235
10204806912.000000,-0.482005,0.338423,-0.104879,-2.216840,0.077534,2.478110,-1.438755
10238977792.000000,-0.482012,0.338469,-0.103354,-2.216887,0.098135,2.466055,-1.446596
10272711680.000000,-0.481996,0.338449,-0.101874,-2.216834,0.117513,2.452256,-1.453023
10306387200.000000,-0.481972,0.338431,-0.100357,-2.216766,0.135098,2.438701,-1.459922
10340849920.000000,-0.481947,0.338522,-0.099041,-2.216778,0.149186,2.427712,-1.467001
10374471168.000000,-0.481851,0.338726,-0.097932,-2.216779,0.157804,2.419492,-1.471216
10408772864.000000,-0.481374,0.338933,-0.097334,-2.216854,0.159960,2.414937,-1.473446
10442491648.000000,-0.480520,0.339195,-0.097170,-2.217162,0.159803,2.414288,-1.475085
10476583936.000000,-0.479652,0.339512,-0.097165,-2.217211,0.159541,2.414376,-1.476664
10510732544.000000,-0.479017,0.339777,-0.097165,-2.217168,0.159506,2.414797,-1.477770
10544751872.000000,-0.478648,0.339914,-0.097164,-2.217112,0.159483,2.415319,-1.478160
10579552256.000000,-0.478540,0.339923,-0.097164,-2.216930,0.159464,2.415700,-1.478194
10613834240.000000,-0.478564,0.339910,-0.097172,-2.216635,0.159469,2.415902,-1.478195
10647500800.000000,-0.478722,0.339893,-0.097195,-2.216405,0.159469,2.415891,-1.478190
10681751296.000000,-0.479090,0.339896,-0.097229,-2.216374,0.159468,2.415875,-1.478173
10715393792.000000,-0.479576,0.339942,-0.097389,-2.216572,0.159481,2.415751,-1.478101
10749878528.000000,-0.480042,0.339934,-0.097595,-2.216742,0.159500,2.415573,-1.477884
10783343360.000000,-0.480057,0.339871,-0.097597,-2.216652,0.159488,2.415617,-1.477889
10817687552.000000,-0.479839,0.339860,-0.097503,-2.216648,0.159484,2.415609,-1.477894
10851803904.000000,-0.479877,0.339920,-0.097544,-2.216667,0.159484,2.415607,-1.477895
10885345792.000000,-0.479923,0.339873,-0.097569,-2.216672,0.159485,2.415616,-1.477886
10919670272.000000,-0.479852,0.339863,-0.097531,-2.216624,0.159486,2.415623,-1.477888
10953316352.000000,-0.479856,0.339920,-0.097528,-2.216668,0.159485,2.415607,-1.477886
10987584512.000000,-0.479901,0.339874,-0.097561,-2.216649,0.159485,2.415615,-1.477884
11021819392.000000,-0.479856,0.339865,-0.097540,-2.216642,0.159482,2.415613,-1.477883
11055893760.000000,-0.479870,0.339912,-0.097539,-2.216662,0.159484,2.415612,-1.477886
11089968128.000000,-0.479884,0.339876,-0.097550,-2.216652,0.159482,2.415615,-1.477889
11123610368.000000,-0.479874,0.339873,-0.097545,-2.216641,0.159485,2.415616,-1.477888
11157412864.000000,-0.479876,0.339912,-0.097546,-2.216663,0.159485,2.415609,-1.477889
11191780352.000000,-0.479881,0.339869,-0.097547,-2.216641,0.159483,2.415613,-1.477892
11225697280.000000,-0.479863,0.339884,-0.097540,-2.216652,0.159486,2.415612,-1.477889
11259835648.000000,-0.479876,0.339906,-0.097545,-2.216649,0.159485,2.415613,-1.477880
11293291008.000000,-0.479885,0.339879,-0.097548,-2.216652,0.159486,2.415616,-1.477882
11327368960.000000,-0.479874,0.339881,-0.097543,-2.216646,0.159485,2.415614,-1.477893
11361657088.000000,-0.479877,0.339899,-0.097545,-2.216657,0.159486,2.415612,-1.477881
11395674368.000000,-0.479877,0.339876,-0.097545,-2.216646,0.159483,2.415616,-1.477889
11429362944.000000,-0.479876,0.339883,-0.097543,-2.216641,0.159481,2.415613,-1.477882
11463920384.000000,-0.479879,0.339899,-0.097546,-2.216649,0.159481,2.415610,-1.477886
11497497856.000000,-0.479873,0.339871,-0.097545,-2.216646,0.159485,2.415613,-1.477887
11531666432.000000,-0.479874,0.339884,-0.097548,-2.216652,0.159485,2.415615,-1.477887
11565307904.000000,-0.479874,0.339897,-0.097543,-2.216654,0.159481,2.415612,-1.477882
11599464704.000000,-0.479871,0.339881,-0.097547,-2.216646,0.159486,2.415616,-1.477889
11633609216.000000,-0.479874,0.339886,-0.097548,-2.216649,0.159485,2.415614,-1.477886
11667743232.000000,-0.479877,0.339894,-0.097545,-2.216654,0.159484,2.415612,-1.477883
11701461760.000000,-0.479874,0.339879,-0.097545,-2.216643,0.159484,2.415615,-1.477884
11735471104.000000,-0.479871,0.339891,-0.097545,-2.216643,0.159481,2.415613,-1.477882
11769737984.000000,-0.479873,0.339892,-0.097543,-2.216660,0.159486,2.415611,-1.477885
11803497216.000000,-0.479877,0.339863,-0.097545,-2.216641,0.159483,2.415615,-1.477889
11837640704.000000,-0.479877,0.339899,-0.097548,-2.216654,0.159485,2.415611,-1.477887
11871350784.000000,-0.479873,0.339888,-0.097545,-2.216652,0.159486,2.415612,-1.477884
11905473024.000000,-0.479871,0.339870,-0.097550,-2.216641,0.159486,2.415616,-1.477880
11939639040.000000,-0.479871,0.339896,-0.097545,-2.216654,0.159484,2.415613,-1.477879
11973551360.000000,-0.479877,0.339882,-0.097543,-2.216654,0.159484,2.415613,-1.477881
12007495936.000000,-0.479874,0.339881,-0.097545,-2.216643,0.159485,2.415615,-1.477884
12041701376.000000,-0.479877,0.339892,-0.097545,-2.216656,0.159484,2.415614,-1.477883
12075373312.000000,-0.479876,0.339876,-0.097543,-2.216649,0.159485,2.415612,-1.477882
12109491712.000000,-0.479874,0.339879,-0.097548,-2.216652,0.159486,2.415612,-1.477880
12143674880.000000,-0.479877,0.339889,-0.097547,-2.216652,0.159485,2.415612,-1.477883
12177305344.000000,-0.479876,0.339884,-0.097545,-2.216649,0.159483,2.415614,-1.477878
12212082176.000000,-0.479877,0.339884,-0.097545,-2.216652,0.159485,2.415613,-1.477883
12245517824.000000,-0.479876,0.339886,-0.097545,-2.216649,0.159486,2.415612,-1.477881
12279355648.000000,-0.479876,0.339884,-0.097546,-2.216649,0.159484,2.415613,-1.477889
12313671424.000000,-0.479878,0.339886,-0.097548,-2.216649,0.159484,2.415612,-1.477880
12347358464.000000,-0.479876,0.339884,-0.097548,-2.216649,0.159485,2.415615,-1.477883
12381832704.000000,-0.479877,0.339891,-0.097545,-2.216652,0.159486,2.415612,-1.477885
12415515392.000000,-0.479874,0.339883,-0.097543,-2.216649,0.159482,2.415616,-1.477886
12449581312.000000,-0.479874,0.339884,-0.097548,-2.216649,0.159484,2.415613,-1.477887
12483363328.000000,-0.479876,0.339892,-0.097548,-2.216652,0.159483,2.415614,-1.477886
12517627136.000000,-0.479877,0.339886,-0.097545,-2.216646,0.159485,2.415613,-1.477882
12551301376.000000,-0.479879,0.339883,-0.097545,-2.216646,0.159485,2.415612,-1.477883
12585393664.000000,-0.479871,0.339889,-0.097545,-2.216649,0.159481,2.415612,-1.477880
12619659008.000000,-0.479871,0.339883,-0.097543,-2.216649,0.159484,2.415613,-1.477880
12653589504.000000,-0.479869,0.339881,-0.097540,-2.216652,0.159486,2.415612,-1.477882
12687334144.000000,-0.479874,0.339888,-0.097545,-2.216650,0.159484,2.415617,-1.477882
12721558016.000000,-0.479884,0.339886,-0.097543,-2.216646,0.159485,2.415614,-1.477882
12755739136.000000,-0.479872,0.339881,-0.097548,-2.216651,0.159484,2.415612,-1.477878
12789342976.000000,-0.479876,0.339892,-0.097545,-2.216652,0.159481,2.415613,-1.477880
12823635968.000000,-0.479871,0.339881,-0.097545,-2.216649,0.159484,2.415614,-1.477887
12857464576.000000,-0.479876,0.339886,-0.097543,-2.216649,0.159484,2.415613,-1.477888
12891325440.000000,-0.479874,0.339887,-0.097545,-2.216643,0.159481,2.415617,-1.477883
12925486080.000000,-0.479877,0.339884,-0.097545,-2.216652,0.159485,2.415615,-1.477880
12959582976.000000,-0.479877,0.339886,-0.097545,-2.216647,0.159485,2.415613,-1.477880
12993768960.000000,-0.479879,0.339883,-0.097543,-2.216652,0.159484,2.415614,-1.477884
13027361792.000000,-0.479874,0.339888,-0.097545,-2.216652,0.159486,2.415613,-1.477880
13061481728.000000,-0.479877,0.339884,-0.097545,-2.216652,0.159482,2.415614,-1.477880
13095604992.000000,-0.479877,0.339889,-0.097545,-2.216652,0.159485,2.415614,-1.477883
